www/assets/icons/fence.svg

<svg width="24" height="24" viewBox="0 0 24 24" xmlns="http://www.w3.org/2000/svg" fill='currentColor'><path d="M21 12V10H19V7L16 4L14 6L12 4L10 6L8 4L5 7V10H3V12H5V14H3V16H5V20H19V16H21V14H19V12H21ZM16 6.83L17 7.83V10H15V7.83L16 6.83ZM12 6.83L13 7.83V10H11V7.83L12 6.83ZM11 14V12H13V14H11ZM13 16V18H11V16H13ZM7 7.83L8 6.83L9 7.83V10H7V7.83ZM7 12H9V14H7V12ZM7 16H9V18H7V16ZM17 18H15V16H17V18ZM17 14H15V12H17V14Z"/></svg>

<svg xmlns="http://www.w3.org/2000/svg" width="24" height="24" viewBox="0 0 24 24" fill='currentColor'><path d="M21 12v-2h-2V7l-3-3-2 2-2-2-2 2-2-2-3 3v3H3v2h2v2H3v2h2v4h14v-4h2v-2h-2v-2zm-5-5.17 1 1V10h-2V7.83zm-4 0 1 1V10h-2V7.83zM11 14v-2h2v2zm2 2v2h-2v-2zM7 7.83l1-1 1 1V10H7zM7 12h2v2H7zm0 4h2v2H7zm10 2h-2v-2h2zm0-4h-2v-2h2z"/></svg>
